source/img/icon-alarm.svg

<svg width="32" height="33" fill="none" xmlns="http://www.w3.org/2000/svg"><ellipse cx="21.2042" cy="11.3299" rx="1.0873" ry="1.08512" fill="#fff"/><ellipse cx="10.3311" cy="11.3299" rx="1.08731" ry="1.08512" fill="#fff"/><ellipse cx="10.3311" cy="24.3512" rx="1.08731" ry="1.08512" fill="#fff"/><ellipse cx="15.7677" cy="26.5215" rx="1.0873" ry="1.08512" fill="#fff"/><ellipse cx="7.06924" cy="17.7748" rx="1.08731" ry="1.08512" fill="#fff"/><ellipse cx="24.4661" cy="17.7748" rx="1.0873" ry="1.08512" fill="#fff"/><ellipse cx="21.2042" cy="24.3512" rx="1.0873" ry="1.08512" fill="#fff"/><mask id="a" fill="#fff"><path fill-rule="evenodd" clip-rule="evenodd" d="M20.9215 29.0581c.4083-.1959.9011-.1283 1.217.1961l1.8259 1.875c.2675.2747.709.2747.9766 0 .2577-.2647.2577-.6865 0-.9511l-1.3567-1.3932c-.4259-.4374-.3615-1.1493.0977-1.5516C26.3238 24.9195 28 21.4688 28 17.6145 28 10.6477 22.5235 5 15.7678 5 9.01218 5 3.53564 10.6477 3.53564 17.6145c0 3.8143 1.64165 7.2332 4.23602 9.5463.45272.4036.51323 1.11.09007 1.5446l-1.43416 1.4727c-.25772.2646-.25773.6864-.00001.951.26757.2748.70908.2748.97665.0001l1.87963-1.9302c.31861-.3272.81656-.3929 1.22636-.1914 1.5928.7831 3.3756 1.2214 5.2576 1.2214 1.8412 0 3.5875-.4195 5.1537-1.1709zm-5.1537-.2307c6.005 0 10.8731-5.0202 10.8731-11.2129 0-6.1927-4.8681-11.21289-10.8731-11.21289-6.005 0-10.87302 5.02019-10.87302 11.21289 0 6.1927 4.86802 11.2129 10.87302 11.2129zm-.7595-11.5294V9.94092c0-.4315.3498-.78129.7812-.78129.4315 0 .7813.34979.7813.78129v8.18168c0 .4435-.3595.8031-.8031.8031-.4194 0-.7594-.34-.7594-.7594v-.8683z"/></mask><path fill-rule="evenodd" clip-rule="evenodd" d="M20.9215 29.0581c.4083-.1959.9011-.1283 1.217.1961l1.8259 1.875c.2675.2747.709.2747.9766 0 .2577-.2647.2577-.6865 0-.9511l-1.3567-1.3932c-.4259-.4374-.3615-1.1493.0977-1.5516C26.3238 24.9195 28 21.4688 28 17.6145 28 10.6477 22.5235 5 15.7678 5 9.01218 5 3.53564 10.6477 3.53564 17.6145c0 3.8143 1.64165 7.2332 4.23602 9.5463.45272.4036.51323 1.11.09007 1.5446l-1.43416 1.4727c-.25772.2646-.25773.6864-.00001.951.26757.2748.70908.2748.97665.0001l1.87963-1.9302c.31861-.3272.81656-.3929 1.22636-.1914 1.5928.7831 3.3756 1.2214 5.2576 1.2214 1.8412 0 3.5875-.4195 5.1537-1.1709zm-5.1537-.2307c6.005 0 10.8731-5.0202 10.8731-11.2129 0-6.1927-4.8681-11.21289-10.8731-11.21289-6.005 0-10.87302 5.02019-10.87302 11.21289 0 6.1927 4.86802 11.2129 10.87302 11.2129zm-.7595-11.5294V9.94092c0-.4315.3498-.78129.7812-.78129.4315 0 .7813.34979.7813.78129v8.18168c0 .4435-.3595.8031-.8031.8031-.4194 0-.7594-.34-.7594-.7594v-.8683z" fill="#fff"/><path d="M9.28384 29.199l2.86566 2.7906-2.86566-2.7906zm1.22636-.1914l1.7648-3.5896-1.7648 3.5896zm-3.10599 2.1216l-2.8657-2.7907 2.8657 2.7907zm-.97664-.9511l2.86568 2.7906-2.86568-2.7906zm17.15673-1.3932l-2.8657 2.7907 2.8657-2.7907zm.0977-1.5516l-2.6355-3.009 2.6355 3.009zm-15.91034-.0725l-2.66195 2.9856 2.66195-2.9856zm.09007 1.5446l-2.86568-2.7907 2.86568 2.7907zM24.941 30.1781l2.8657-2.7907-2.8657 2.7907zm-.9766.9511l2.8657-2.7907-2.8657 2.7907zm-1.8259-1.875l-2.8657 2.7907 2.8657-2.7907zm-1.217-.1961l-1.7302-3.6065 1.7302 3.6065zm-1.6487 2.9868l1.8259 1.8749 5.7314-5.5813-1.8259-1.8749-5.7314 5.5813zm8.5339-4.6575L26.45 25.9942l-5.7314 5.5814 1.3567 1.3932 5.7314-5.5814zm-1.4892 2.8549C29.8075 27.1855 32 22.6466 32 17.6145h-8c0 2.6766-1.1599 5.0389-2.9535 6.6098l5.271 6.018zM32 17.6145C32 8.5555 24.8478 1 15.7678 1v8C20.1992 9 24 12.7399 24 17.6145h8zM15.7678 1C6.68789 1-.464355 8.5555-.464355 17.6145H7.53564C7.53564 12.7399 11.3365 9 15.7678 9V1zM-.464355 17.6145c0 4.9798 2.147315 9.4767 5.574065 12.5319l5.32389-5.9712c-1.76198-1.571-2.89796-3.9119-2.89796-6.5607H-.464355zm5.460405 8.3002l-1.43417 1.4727 5.73137 5.5813 1.43415-1.4727-5.73135-5.5813zm5.27385 8.0051l1.8796-1.9302-5.73136-5.5813-1.87963 1.9302 5.73139 5.5813zm-1.52452-1.3226c2.12682 1.0457 4.51192 1.6318 7.02242 1.6318v-8c-1.2535 0-2.4341-.2905-3.4928-.811l-3.52962 7.1792zm7.02242 1.6318c2.4558 0 4.792-.5609 6.8839-1.5645l-3.4604-7.2129c-1.0405.4992-2.1969.7774-3.4235.7774v8zm0-1.4016c8.3293 0 14.8731-6.928 14.8731-15.2129h-8c0 4.1005-3.1924 7.2129-6.8731 7.2129v8zm14.8731-15.2129c0-8.28491-6.5438-15.21289-14.8731-15.21289v7.99999c3.6807 0 6.8731 3.1124 6.8731 7.2129h8zM15.7678 2.40161C7.43851 2.40161.894775 9.32959.894775 17.6145H8.89478c0-4.1005 3.19232-7.2129 6.87302-7.2129V2.40161zM.894775 17.6145c0 8.2849 6.543735 15.2129 14.873025 15.2129v-8c-3.6807 0-6.87302-3.1124-6.87302-7.2129H.894775zM12.5708 17.298v.5426h8v-.5426h-8zm0 .5426v.282h8v-.282h-8zm6.4375.3257v-.3257h-8v.3257h8zm0-.3257v-.5426h-8v.5426h8zm0-.5426v-3.7979h-8v3.7979h8zm0-3.7979V9.94092h-8v3.55918h8zm-6.4375-3.55918v3.55918h8V9.94092h-8zm0 3.55918v3.7979h8v-3.7979h-8zm3.2187-8.34047c-2.6406 0-4.7812 2.14066-4.7812 4.78129h8c0 1.77768-1.4411 3.21868-3.2188 3.21868V5.15963zM12.5708 18.1226c0-1.7656 1.4313-3.1969 3.1969-3.1969v8c2.6527 0 4.8031-2.1504 4.8031-4.8031h-8zm-.4213 13.867c-.9926 1.0194-2.3974 1.1026-3.40412.6076L12.275 25.418c-1.8263-.898-4.22695-.6834-5.85686.9903l5.73136 5.5813zm-8.58765 1.9302c1.83781 1.8872 4.87025 1.8872 6.70805 0l-5.73139-5.5813c1.30267-1.3377 3.4521-1.3377 4.75476 0l-5.73142 5.5813zm.00003-6.5324c-1.77013 1.8177-1.77014 4.7147-.00003 6.5324l5.73142-5.5813c1.25473 1.2884 1.25463 3.3418-.00002 4.6302l-5.73137-5.5813zM26.45 25.9942c1.3427 1.3789.944 3.3052-.1325 4.2481l-5.271-6.018c-1.995 1.7474-2.5225 5.0976-.3279 7.3513l5.7314-5.5814zM15.7895 13.1596c-1.7776 0-3.2187-1.441-3.2187-3.21868h8c0-2.64064-2.1406-4.78129-4.7813-4.78129v7.99997zM5.10971 30.1464c-1.06341-.9481-1.44708-2.8625-.11366-4.2317l5.73135 5.5813c2.1797-2.2383 1.6751-5.5654-.2938-7.3208l-5.32389 5.9712zm22.69699 3.7734c1.7701-1.8177 1.7701-4.7147 0-6.5324l-5.7314 5.5814c-1.2547-1.2885-1.2547-3.3419 0-4.6303l5.7314 5.5813zm-6.708 0c1.8378 1.8872 4.8702 1.8872 6.708 0l-5.7314-5.5813c1.3027-1.3377 3.4521-1.3377 4.7548 0l-5.7314 5.5813zm-5.331-18.9941c1.7897 0 3.2406 1.4508 3.2406 3.2406h-8c0 2.6285 2.1308 4.7594 4.7594 4.7594v-8zm9.2365 11.5379c-1.6161-1.6596-3.9925-1.8853-5.8129-1.012l3.4604 7.2129c-1.0037.4816-2.3947.391-3.3789-.6196l5.7314-5.5813z" fill="#fff" mask="url(#a)"/><path fill="#fff" d="M15 6V2h1.5v4z"/><rect x="8" y="2" width="15.5" height="1.5" rx=".75" fill="#fff"/></svg>

<svg width="32" height="33" viewBox="0 0 32 33" fill="none" xmlns="http://www.w3.org/2000/svg">
<ellipse cx="21.2042" cy="11.3299" rx="1.0873" ry="1.08512" fill="white"/>
<ellipse cx="10.3311" cy="11.3299" rx="1.08731" ry="1.08512" fill="white"/>
<ellipse cx="10.3311" cy="24.3512" rx="1.08731" ry="1.08512" fill="white"/>
<ellipse cx="15.7677" cy="26.5215" rx="1.0873" ry="1.08512" fill="white"/>
<ellipse cx="7.06924" cy="17.7748" rx="1.08731" ry="1.08512" fill="white"/>
<ellipse cx="24.4661" cy="17.7748" rx="1.0873" ry="1.08512" fill="white"/>
<ellipse cx="21.2042" cy="24.3512" rx="1.0873" ry="1.08512" fill="white"/>
<mask id="path-8-inside-1" fill="white">
<path fill-rule="evenodd" clip-rule="evenodd" d="M20.9215 29.0581C21.3298 28.8622 21.8226 28.9298 22.1385 29.2542L23.9644 31.1292C24.2319 31.4039 24.6734 31.4039 24.941 31.1292C25.1987 30.8645 25.1987 30.4427 24.941 30.1781L23.5843 28.7849C23.1584 28.3475 23.2228 27.6356 23.682 27.2333C26.3238 24.9195 28 21.4688 28 17.6145C28 10.6477 22.5235 5 15.7678 5C9.01218 5 3.53564 10.6477 3.53564 17.6145C3.53564 21.4288 5.17729 24.8477 7.77166 27.1608C8.22438 27.5644 8.28489 28.2708 7.86173 28.7054L6.42757 30.1781C6.16985 30.4427 6.16984 30.8645 6.42756 31.1291C6.69513 31.4039 7.13664 31.4039 7.40421 31.1292L9.28384 29.199C9.60245 28.8718 10.1004 28.8061 10.5102 29.0076C12.103 29.7907 13.8858 30.229 15.7678 30.229C17.609 30.229 19.3553 29.8095 20.9215 29.0581ZM15.7678 28.8274C21.7728 28.8274 26.6409 23.8072 26.6409 17.6145C26.6409 11.4218 21.7728 6.40161 15.7678 6.40161C9.7628 6.40161 4.89478 11.4218 4.89478 17.6145C4.89478 23.8072 9.7628 28.8274 15.7678 28.8274ZM15.0083 17.298V13.5001V9.94092C15.0083 9.50942 15.3581 9.15963 15.7895 9.15963C16.221 9.15963 16.5708 9.50942 16.5708 9.94092V13.5001V17.298V17.8406V18.1226C16.5708 18.5661 16.2113 18.9257 15.7677 18.9257C15.3483 18.9257 15.0083 18.5857 15.0083 18.1663V17.8406V17.298Z"/>
</mask>
<path fill-rule="evenodd" clip-rule="evenodd" d="M20.9215 29.0581C21.3298 28.8622 21.8226 28.9298 22.1385 29.2542L23.9644 31.1292C24.2319 31.4039 24.6734 31.4039 24.941 31.1292C25.1987 30.8645 25.1987 30.4427 24.941 30.1781L23.5843 28.7849C23.1584 28.3475 23.2228 27.6356 23.682 27.2333C26.3238 24.9195 28 21.4688 28 17.6145C28 10.6477 22.5235 5 15.7678 5C9.01218 5 3.53564 10.6477 3.53564 17.6145C3.53564 21.4288 5.17729 24.8477 7.77166 27.1608C8.22438 27.5644 8.28489 28.2708 7.86173 28.7054L6.42757 30.1781C6.16985 30.4427 6.16984 30.8645 6.42756 31.1291C6.69513 31.4039 7.13664 31.4039 7.40421 31.1292L9.28384 29.199C9.60245 28.8718 10.1004 28.8061 10.5102 29.0076C12.103 29.7907 13.8858 30.229 15.7678 30.229C17.609 30.229 19.3553 29.8095 20.9215 29.0581ZM15.7678 28.8274C21.7728 28.8274 26.6409 23.8072 26.6409 17.6145C26.6409 11.4218 21.7728 6.40161 15.7678 6.40161C9.7628 6.40161 4.89478 11.4218 4.89478 17.6145C4.89478 23.8072 9.7628 28.8274 15.7678 28.8274ZM15.0083 17.298V13.5001V9.94092C15.0083 9.50942 15.3581 9.15963 15.7895 9.15963C16.221 9.15963 16.5708 9.50942 16.5708 9.94092V13.5001V17.298V17.8406V18.1226C16.5708 18.5661 16.2113 18.9257 15.7677 18.9257C15.3483 18.9257 15.0083 18.5857 15.0083 18.1663V17.8406V17.298Z" fill="white"/>
<path d="M9.28384 29.199L12.1495 31.9896L9.28384 29.199ZM10.5102 29.0076L12.275 25.418L10.5102 29.0076ZM7.40421 31.1292L4.53851 28.3385L7.40421 31.1292ZM6.42757 30.1781L9.29325 32.9687L6.42757 30.1781ZM23.5843 28.7849L20.7186 31.5756L23.5843 28.7849ZM23.682 27.2333L21.0465 24.2243L23.682 27.2333ZM7.77166 27.1608L5.10971 30.1464L7.77166 27.1608ZM7.86173 28.7054L4.99605 25.9147L7.86173 28.7054ZM24.941 30.1781L27.8067 27.3874L24.941 30.1781ZM23.9644 31.1292L26.8301 28.3385L23.9644 31.1292ZM22.1385 29.2542L19.2728 32.0449L22.1385 29.2542ZM20.9215 29.0581L19.1913 25.4516L20.9215 29.0581ZM19.2728 32.0449L21.0987 33.9198L26.8301 28.3385L25.0042 26.4636L19.2728 32.0449ZM27.8067 27.3874L26.45 25.9942L20.7186 31.5756L22.0753 32.9688L27.8067 27.3874ZM26.3175 30.2423C29.8075 27.1855 32 22.6466 32 17.6145H24C24 20.2911 22.8401 22.6534 21.0465 24.2243L26.3175 30.2423ZM32 17.6145C32 8.5555 24.8478 1 15.7678 1V9C20.1992 9 24 12.7399 24 17.6145H32ZM15.7678 1C6.68789 1 -0.464355 8.5555 -0.464355 17.6145H7.53564C7.53564 12.7399 11.3365 9 15.7678 9V1ZM-0.464355 17.6145C-0.464355 22.5943 1.68296 27.0912 5.10971 30.1464L10.4336 24.1752C8.67162 22.6042 7.53564 20.2633 7.53564 17.6145H-0.464355ZM4.99605 25.9147L3.56188 27.3874L9.29325 32.9687L10.7274 31.496L4.99605 25.9147ZM10.2699 33.9198L12.1495 31.9896L6.41814 26.4083L4.53851 28.3385L10.2699 33.9198ZM8.74538 32.5972C10.8722 33.6429 13.2573 34.229 15.7678 34.229V26.229C14.5143 26.229 13.3337 25.9385 12.275 25.418L8.74538 32.5972ZM15.7678 34.229C18.2236 34.229 20.5598 33.6681 22.6517 32.6645L19.1913 25.4516C18.1508 25.9508 16.9944 26.229 15.7678 26.229V34.229ZM15.7678 32.8274C24.0971 32.8274 30.6409 25.8994 30.6409 17.6145H22.6409C22.6409 21.715 19.4485 24.8274 15.7678 24.8274V32.8274ZM30.6409 17.6145C30.6409 9.32959 24.0971 2.40161 15.7678 2.40161V10.4016C19.4485 10.4016 22.6409 13.514 22.6409 17.6145H30.6409ZM15.7678 2.40161C7.43851 2.40161 0.894775 9.32959 0.894775 17.6145H8.89478C8.89478 13.514 12.0871 10.4016 15.7678 10.4016V2.40161ZM0.894775 17.6145C0.894775 25.8994 7.43851 32.8274 15.7678 32.8274V24.8274C12.0871 24.8274 8.89478 21.715 8.89478 17.6145H0.894775ZM12.5708 17.298V17.8406H20.5708V17.298H12.5708ZM12.5708 17.8406V18.1226H20.5708V17.8406H12.5708ZM19.0083 18.1663V17.8406H11.0083V18.1663H19.0083ZM19.0083 17.8406V17.298H11.0083V17.8406H19.0083ZM19.0083 17.298V13.5001H11.0083V17.298H19.0083ZM19.0083 13.5001V9.94092H11.0083V13.5001H19.0083ZM12.5708 9.94092V13.5001H20.5708V9.94092H12.5708ZM12.5708 13.5001V17.298H20.5708V13.5001H12.5708ZM15.7895 5.15963C13.1489 5.15963 11.0083 7.30029 11.0083 9.94092H19.0083C19.0083 11.7186 17.5672 13.1596 15.7895 13.1596V5.15963ZM12.5708 18.1226C12.5708 16.357 14.0021 14.9257 15.7677 14.9257V22.9257C18.4204 22.9257 20.5708 20.7753 20.5708 18.1226H12.5708ZM12.1495 31.9896C11.1569 33.009 9.7521 33.0922 8.74538 32.5972L12.275 25.418C10.4487 24.52 8.04805 24.7346 6.41814 26.4083L12.1495 31.9896ZM3.56185 33.9198C5.39966 35.807 8.4321 35.807 10.2699 33.9198L4.53851 28.3385C5.84118 27.0008 7.99061 27.0008 9.29327 28.3385L3.56185 33.9198ZM3.56188 27.3874C1.79175 29.2051 1.79174 32.1021 3.56185 33.9198L9.29327 28.3385C10.548 29.6269 10.5479 31.6803 9.29325 32.9687L3.56188 27.3874ZM26.45 25.9942C27.7927 27.3731 27.394 29.2994 26.3175 30.2423L21.0465 24.2243C19.0515 25.9717 18.524 29.3219 20.7186 31.5756L26.45 25.9942ZM15.7895 13.1596C14.0119 13.1596 12.5708 11.7186 12.5708 9.94092H20.5708C20.5708 7.30028 18.4302 5.15963 15.7895 5.15963V13.1596ZM5.10971 30.1464C4.0463 29.1983 3.66263 27.2839 4.99605 25.9147L10.7274 31.496C12.9071 29.2577 12.4025 25.9306 10.4336 24.1752L5.10971 30.1464ZM27.8067 33.9198C29.5768 32.1021 29.5768 29.2051 27.8067 27.3874L22.0753 32.9688C20.8206 31.6803 20.8206 29.6269 22.0753 28.3385L27.8067 33.9198ZM21.0987 33.9198C22.9365 35.807 25.9689 35.807 27.8067 33.9198L22.0753 28.3385C23.378 27.0008 25.5274 27.0008 26.8301 28.3385L21.0987 33.9198ZM15.7677 14.9257C17.5574 14.9257 19.0083 16.3765 19.0083 18.1663H11.0083C11.0083 20.7948 13.1391 22.9257 15.7677 22.9257V14.9257ZM25.0042 26.4636C23.3881 24.804 21.0117 24.5783 19.1913 25.4516L22.6517 32.6645C21.648 33.1461 20.257 33.0555 19.2728 32.0449L25.0042 26.4636Z" fill="white" mask="url(#path-8-inside-1)"/>
<rect x="15" y="6" width="4" height="1.5" transform="rotate(-90 15 6)" fill="white"/>
<rect x="8" y="2" width="15.5" height="1.5" rx="0.75" fill="white"/>
</svg>
